**kern	**kern
*staff2	*staff1
*clefF4	*clefG2
*k[b-e-a-]	*k[b-e-a-]
*M3/4	*M3/4
*c:	*c:
=	=
8CC	16ee-LL
.	16g
8r	16a-
.	16gJJ
8CC	16ee-LL
.	16g
8r	16a-
.	16gJJ
8CC	16ee-LL
.	16g
8r	16a-
.	16gJJ
=202	=202
8BBB	16ddLL
.	16g
8r	16a
.	16gJJ
4r	16f#LL
.	16g
.	16b
.	16ddJJ
4r	16ggLL
.	16bb
.	16ddd
.	16ggJJ
=203	=203
8BBB-	16dd-LL
.	16e
8r	16f
.	16eJJ
8BBB-	16dd-LL
.	16e
8r	16f
.	16eJJ
8BBB-	16dd-LL
.	16e
8r	16f
.	16eJJ
=204	=204
8AAA	16ccLL
.	16f
8r	16g
.	16fJJ
4r	16eLL
.	16f
.	16a
.	16ccJJ
4r	16ffLL
.	16aa
.	16ccc
.	16ffJJ
=205	=205
8AAA-	16ff#LL
.	16cc
8r	16dd
.	16ccJJ
8AAA-	16ff#LL
.	16cc
8r	16dd
.	16ccJJ
8AAA-	16ff#LL
.	16cc
8r	16dd
.	16ccJJ
=206	=206
8GGG	16ggLL
.	16cc
8r	16dd
.	16ccJJ
8FFF	16aa-LL
.	16cc
8r	16dd
.	16ffJJ
4r	16aa-LL
.	16ccc
.	16ddd
.	16fffJJ
=207	=207
4r	16aaa-LL
.	16ggg
.	16fff
.	16eee-JJ
*clefG2	*
8f 8a- 8dd	16dddLL
.	16eee-
8r	16fff
.	16cccJJ
8g 8b 8dd	16bbLL
.	16ccc
8r	16ddd
.	16ffJJ
=208	=208
8c 8e- 8g 8cc	16ee-LL
.	16ff
8r	16gg
.	16ccJJ
4r	16e-LL
.	16f
.	16g
.	16cJJ
*clefF4	*
16E-LL	4r
16F	.
16G	.
16CJJ	.
=209||	=209||
*-	*-
